; HEADER_BLOCK_START
; generated by OrcaSlicer 2.0.0 on 2024-03-30 at 19:10:49
; total layer number: 2
; filament_density: 1.27
; filament_diameter: 1.75
; max_z_height: 0.40
; HEADER_BLOCK_END

; THUMBNAIL_BLOCK_START

;
; THUMBNAIL_BLOCK_END

; THUMBNAIL_BLOCK_START

;
; THUMBNAIL_BLOCK_END

; external perimeters extrusion width = 0.50mm
; perimeters extrusion width = 0.50mm
; infill extrusion width = 0.50mm
; solid infill extrusion width = 0.50mm
; top infill extrusion width = 0.50mm
; first layer extrusion width = 0.50mm

; EXECUTABLE_BLOCK_START
EXCLUDE_OBJECT_DEFINE NAME=Diffuser_id_0_copy_0 CENTER=110,110 POLYGON=[[90.5,94.5],[129.5,94.5],[129.5,125.5],[90.5,125.5],[90.5,94.5]]
M73 P0 R2
;TYPE:Custom
START_PRINT BED_TEMP=80 EXTRUDER_TEMP=235
G90
G21
M83 ; use relative distances for extrusion
; filament start gcode
M106 S0
;LAYER_CHANGE
;Z:0.2
;HEIGHT:0.2
;BEFORE_LAYER_CHANGE
;0.2
G92 E0

G1 E-.5 F2400
TIMELAPSE_TAKE_FRAME
;_SET_FAN_SPEED_CHANGING_LAYER
SET_VELOCITY_LIMIT ACCEL=500 ACCEL_TO_DECEL=250
SET_VELOCITY_LIMIT SQUARE_CORNER_VELOCITY=7
; printing object Diffuser id:0 copy 0
EXCLUDE_OBJECT_START NAME=Diffuser_id_0_copy_0
G1 Z.2 F18000
G1 X128.793 Y124.793
G1 Z.2
G1 E.5 F2400
;TYPE:Inner wall
;WIDTH:0.5
G1 F3000
G1 X91.207 Y124.793 E1.35707
M73 P1 R2
G1 X91.207 Y95.207 E1.06823
G1 X128.793 Y95.207 E1.35707
M73 P2 R2
G1 X128.793 Y124.753 E1.06678
M73 P3 R2
G1 X129.25 Y125.25 F18000
;TYPE:Outer wall
G1 F3000
G1 X90.75 Y125.25 E1.39008
G1 X90.75 Y94.75 E1.10123
M73 P4 R2
G1 X129.25 Y94.75 E1.39008
G1 X129.25 Y125.21 E1.09979
M73 P5 R2
G1 E-.35 F2400
;WIPE_START
G1 F3000
G1 X128.25 Y125.211 E-.15
;WIPE_END
TIMELAPSE_TAKE_FRAME
G1 Z.4 F18000
G1 X128.61 Y124.404
G1 Z.4
G1 Z.2
G1 E.5 F2400
;TYPE:Bottom surface
;WIDTH:0.500199
G1 F5904.492
G1 X91.596 Y124.404 E1.33703
G1 X91.596 Y123.947 E.01652
G1 X128.404 Y123.947 E1.3296
M73 P6 R2
G1 X128.404 Y123.49 E.01652
G1 X91.596 Y123.49 E1.3296
G1 X91.596 Y123.032 E.01652
G1 X128.404 Y123.032 E1.3296
M73 P7 R2
G1 X128.404 Y122.575 E.01652
G1 X91.596 Y122.575 E1.3296
G1 X91.596 Y122.118 E.01652
G1 X128.404 Y122.118 E1.3296
G1 X128.404 Y121.661 E.01652
G1 X91.596 Y121.661 E1.3296
M73 P8 R2
G1 X91.596 Y121.203 E.01652
G1 X128.404 Y121.203 E1.3296
G1 X128.404 Y120.746 E.01652
G1 X91.596 Y120.746 E1.3296
M73 P9 R2
G1 X91.596 Y120.289 E.01652
G1 X128.404 Y120.289 E1.3296
G1 X128.404 Y119.832 E.01652
G1 X91.596 Y119.832 E1.3296
M73 P10 R2
G1 X91.596 Y119.374 E.01652
G1 X128.404 Y119.374 E1.3296
G1 X128.404 Y118.917 E.01652
G1 X91.596 Y118.917 E1.3296
G1 X91.596 Y118.46 E.01652
G1 X128.404 Y118.46 E1.3296
M73 P11 R2
G1 X128.404 Y118.002 E.01652
G1 X91.596 Y118.002 E1.3296
G1 X91.596 Y117.545 E.01652
G1 X128.404 Y117.545 E1.3296
M73 P12 R2
G1 X128.404 Y117.088 E.01652
G1 X91.596 Y117.088 E1.3296
G1 X91.596 Y116.631 E.01652
G1 X128.404 Y116.631 E1.3296
G1 X128.404 Y116.173 E.01652
M73 P13 R2
G1 X91.596 Y116.173 E1.3296
G1 X91.596 Y115.716 E.01652
G1 X128.404 Y115.716 E1.3296
G1 X128.404 Y115.259 E.01652
G1 X91.596 Y115.259 E1.3296
M73 P14 R1
G1 X91.596 Y114.801 E.01652
G1 X128.404 Y114.801 E1.3296
G1 X128.404 Y114.344 E.01652
G1 X91.596 Y114.344 E1.3296
M73 P15 R1
G1 X91.596 Y113.887 E.01652
G1 X128.404 Y113.887 E1.3296
G1 X128.404 Y113.43 E.01652
G1 X91.596 Y113.43 E1.3296
G1 X91.596 Y112.972 E.01652
G1 X128.404 Y112.972 E1.3296
M73 P16 R1
G1 X128.404 Y112.515 E.01652
G1 X91.596 Y112.515 E1.3296
G1 X91.596 Y112.058 E.01652
G1 X128.404 Y112.058 E1.3296
M73 P17 R1
G1 X128.404 Y111.601 E.01652
G1 X91.596 Y111.6 E1.3296
G1 X91.596 Y111.143 E.01652
G1 X128.404 Y111.143 E1.3296
M73 P18 R1
G1 X128.404 Y110.686 E.01652
G1 X91.596 Y110.686 E1.3296
G1 X91.596 Y110.229 E.01652
G1 X128.404 Y110.229 E1.3296
G1 X128.404 Y109.771 E.01652
G1 X91.596 Y109.771 E1.3296
M73 P19 R1
G1 X91.596 Y109.314 E.01652
G1 X128.404 Y109.314 E1.3296
G1 X128.404 Y108.857 E.01652
G1 X91.596 Y108.857 E1.3296
M73 P20 R1
G1 X91.596 Y108.4 E.01652
G1 X128.404 Y108.4 E1.3296
G1 X128.404 Y107.942 E.01652
G1 X91.596 Y107.942 E1.3296
G1 X91.596 Y107.485 E.01652
G1 X128.404 Y107.485 E1.3296
M73 P21 R1
G1 X128.404 Y107.028 E.01652
G1 X91.596 Y107.028 E1.3296
G1 X91.596 Y106.57 E.01652
G1 X128.404 Y106.57 E1.3296
M73 P22 R1
G1 X128.404 Y106.113 E.01652
G1 X91.596 Y106.113 E1.3296
G1 X91.596 Y105.656 E.01652
G1 X128.404 Y105.656 E1.3296
M73 P23 R1
G1 X128.404 Y105.199 E.01652
G1 X91.596 Y105.199 E1.3296
G1 X91.596 Y104.741 E.01652
G1 X128.404 Y104.741 E1.3296
G1 X128.404 Y104.284 E.01652
G1 X91.596 Y104.284 E1.3296
M73 P24 R1
G1 X91.596 Y103.827 E.01652
G1 X128.404 Y103.827 E1.3296
G1 X128.404 Y103.369 E.01652
G1 X91.596 Y103.369 E1.3296
M73 P25 R1
G1 X91.596 Y102.912 E.01652
G1 X128.404 Y102.912 E1.3296
G1 X128.404 Y102.455 E.01652
G1 X91.596 Y102.455 E1.3296
G1 X91.596 Y101.998 E.01652
M73 P26 R1
G1 X128.404 Y101.998 E1.3296
G1 X128.404 Y101.54 E.01652
G1 X91.596 Y101.54 E1.3296
G1 X91.596 Y101.083 E.01652
G1 X128.404 Y101.083 E1.3296
M73 P27 R1
G1 X128.404 Y100.626 E.01652
G1 X91.596 Y100.626 E1.3296
G1 X91.596 Y100.169 E.01652
G1 X128.404 Y100.169 E1.3296
M73 P28 R1
G1 X128.404 Y99.711 E.01652
G1 X91.596 Y99.711 E1.3296
G1 X91.596 Y99.254 E.01652
G1 X128.404 Y99.254 E1.3296
G1 X128.404 Y98.797 E.01652
G1 X91.596 Y98.797 E1.3296
M73 P29 R1
G1 X91.596 Y98.339 E.01652
G1 X128.404 Y98.339 E1.3296
G1 X128.404 Y97.882 E.01652
G1 X91.596 Y97.882 E1.3296
M73 P30 R1
G1 X91.596 Y97.425 E.01652
G1 X128.404 Y97.425 E1.3296
G1 X128.404 Y96.968 E.01652
G1 X91.596 Y96.968 E1.3296
M73 P31 R1
G1 X91.596 Y96.51 E.01652
G1 X128.404 Y96.51 E1.3296
G1 X128.404 Y96.053 E.01652
G1 X91.596 Y96.053 E1.3296
G1 X91.596 Y95.596 E.01652
G1 X128.61 Y95.596 E1.33703
; stop printing object Diffuser id:0 copy 0
;LAYER_CHANGE
;Z:0.4
;HEIGHT:0.2
;BEFORE_LAYER_CHANGE
;0.4
G92 E0

M73 P32 R1
G1 E-.35 F2400
;WIPE_START
G1 F5904.492
G1 X127.61 Y95.596 E-.15
;WIPE_END
EXCLUDE_OBJECT_END NAME=Diffuser_id_0_copy_0
TIMELAPSE_TAKE_FRAME
;_SET_FAN_SPEED_CHANGING_LAYER
SET_VELOCITY_LIMIT ACCEL=5000 ACCEL_TO_DECEL=2500
M104 S230 ; set nozzle temperature
; printing object Diffuser id:0 copy 0
SET_VELOCITY_LIMIT SQUARE_CORNER_VELOCITY=8
EXCLUDE_OBJECT_START NAME=Diffuser_id_0_copy_0
G1 Z.4 F18000
G1 X128.793 Y124.793 Z.4
G1 E.5 F2400
SET_VELOCITY_LIMIT SQUARE_CORNER_VELOCITY=7
;TYPE:Inner wall
;WIDTH:0.5
G1 F1200
G1 X91.207 Y124.793 E1.35707
M73 P33 R1
G1 X91.207 Y95.207 E1.06823
M73 P34 R1
G1 X128.793 Y95.207 E1.35707
M73 P36 R1
G1 X128.793 Y124.753 E1.06678
SET_VELOCITY_LIMIT SQUARE_CORNER_VELOCITY=8
M73 P37 R1
G1 X129.25 Y125.25 F18000
SET_VELOCITY_LIMIT ACCEL=2500 ACCEL_TO_DECEL=1250
;TYPE:Outer wall
G1 F1200
G1 X90.75 Y125.25 E1.39008
M73 P38 R1
G1 X90.75 Y94.75 E1.10123
M73 P39 R1
G1 X129.25 Y94.75 E1.39008
M73 P41 R1
G1 X129.25 Y125.21 E1.09979
M73 P42 R1
G1 E-.35 F2400
;WIPE_START
G1 F1200
G1 X128.25 Y125.211 E-.15
;WIPE_END
TIMELAPSE_TAKE_FRAME
SET_VELOCITY_LIMIT ACCEL=5000 ACCEL_TO_DECEL=2500
G1 Z.6 F18000
G1 X128.61 Y124.404
G1 Z.6
G1 Z.4
G1 E.5 F2400
SET_VELOCITY_LIMIT SQUARE_CORNER_VELOCITY=7
;TYPE:Top surface
;WIDTH:0.500199
G1 F1800
G1 X91.596 Y124.404 E1.33703
M73 P43 R1
G1 X91.596 Y123.947 E.01652
G1 X128.404 Y123.947 E1.3296
M73 P44 R1
G1 X128.404 Y123.49 E.01652
G1 X91.596 Y123.49 E1.3296
M73 P45 R1
G1 X91.596 Y123.032 E.01652
G1 X128.404 Y123.032 E1.3296
M73 P46 R1
G1 X128.404 Y122.575 E.01652
G1 X91.596 Y122.575 E1.3296
G1 X91.596 Y122.118 E.01652
G1 X128.404 Y122.118 E1.3296
M73 P47 R1
G1 X128.404 Y121.661 E.01652
G1 X91.596 Y121.661 E1.3296
M73 P48 R1
G1 X91.596 Y121.203 E.01652
G1 X128.404 Y121.203 E1.3296
M73 P49 R1
G1 X128.404 Y120.746 E.01652
G1 X91.596 Y120.746 E1.3296
M73 P50 R1
G1 X91.596 Y120.289 E.01652
G1 X128.404 Y120.289 E1.3296
M73 P51 R1
G1 X128.404 Y119.832 E.01652
G1 X91.596 Y119.832 E1.3296
M73 P52 R1
G1 X91.596 Y119.374 E.01652
G1 X128.404 Y119.374 E1.3296
M73 P53 R1
G1 X128.404 Y118.917 E.01652
G1 X91.596 Y118.917 E1.3296
M73 P54 R1
G1 X91.596 Y118.46 E.01652
G1 X128.404 Y118.46 E1.3296
M73 P55 R1
G1 X128.404 Y118.002 E.01652
G1 X91.596 Y118.002 E1.3296
G1 X91.596 Y117.545 E.01652
G1 X128.404 Y117.545 E1.3296
M73 P56 R1
G1 X128.404 Y117.088 E.01652
G1 X91.596 Y117.088 E1.3296
M73 P57 R0
G1 X91.596 Y116.631 E.01652
G1 X128.404 Y116.631 E1.3296
M73 P58 R0
G1 X128.404 Y116.173 E.01652
G1 X91.596 Y116.173 E1.3296
M73 P59 R0
G1 X91.596 Y115.716 E.01652
G1 X128.404 Y115.716 E1.3296
M73 P60 R0
G1 X128.404 Y115.259 E.01652
G1 X91.596 Y115.259 E1.3296
M73 P61 R0
G1 X91.596 Y114.801 E.01652
G1 X128.404 Y114.801 E1.3296
M73 P62 R0
G1 X128.404 Y114.344 E.01652
G1 X91.596 Y114.344 E1.3296
M73 P63 R0
G1 X91.596 Y113.887 E.01652
G1 X128.404 Y113.887 E1.3296
M73 P64 R0
G1 X128.404 Y113.43 E.01652
G1 X91.596 Y113.43 E1.3296
G1 X91.596 Y112.972 E.01652
G1 X128.404 Y112.972 E1.3296
M73 P65 R0
G1 X128.404 Y112.515 E.01652
G1 X91.596 Y112.515 E1.3296
M73 P66 R0
G1 X91.596 Y112.058 E.01652
G1 X128.404 Y112.058 E1.3296
M73 P67 R0
G1 X128.404 Y111.601 E.01652
G1 X91.596 Y111.6 E1.3296
M73 P68 R0
G1 X91.596 Y111.143 E.01652
G1 X128.404 Y111.143 E1.3296
M73 P69 R0
G1 X128.404 Y110.686 E.01652
G1 X91.596 Y110.686 E1.3296
M73 P70 R0
G1 X91.596 Y110.229 E.01652
G1 X128.404 Y110.229 E1.3296
M73 P71 R0
G1 X128.404 Y109.771 E.01652
G1 X91.596 Y109.771 E1.3296
M73 P72 R0
G1 X91.596 Y109.314 E.01652
G1 X128.404 Y109.314 E1.3296
G1 X128.404 Y108.857 E.01652
M73 P73 R0
G1 X91.596 Y108.857 E1.3296
G1 X91.596 Y108.4 E.01652
G1 X128.404 Y108.4 E1.3296
M73 P74 R0
G1 X128.404 Y107.942 E.01652
G1 X91.596 Y107.942 E1.3296
M73 P75 R0
G1 X91.596 Y107.485 E.01652
G1 X128.404 Y107.485 E1.3296
M73 P76 R0
G1 X128.404 Y107.028 E.01652
G1 X91.596 Y107.028 E1.3296
M73 P77 R0
G1 X91.596 Y106.57 E.01652
G1 X128.404 Y106.57 E1.3296
M73 P78 R0
G1 X128.404 Y106.113 E.01652
G1 X91.596 Y106.113 E1.3296
M73 P79 R0
G1 X91.596 Y105.656 E.01652
G1 X128.404 Y105.656 E1.3296
M73 P80 R0
G1 X128.404 Y105.199 E.01652
G1 X91.596 Y105.199 E1.3296
M73 P81 R0
G1 X91.596 Y104.741 E.01652
G1 X128.404 Y104.741 E1.3296
G1 X128.404 Y104.284 E.01652
G1 X91.596 Y104.284 E1.3296
M73 P82 R0
G1 X91.596 Y103.827 E.01652
G1 X128.404 Y103.827 E1.3296
M73 P83 R0
G1 X128.404 Y103.369 E.01652
G1 X91.596 Y103.369 E1.3296
M73 P84 R0
G1 X91.596 Y102.912 E.01652
G1 X128.404 Y102.912 E1.3296
M73 P85 R0
G1 X128.404 Y102.455 E.01652
G1 X91.596 Y102.455 E1.3296
M73 P86 R0
G1 X91.596 Y101.998 E.01652
G1 X128.404 Y101.998 E1.3296
M73 P87 R0
G1 X128.404 Y101.54 E.01652
G1 X91.596 Y101.54 E1.3296
M73 P88 R0
G1 X91.596 Y101.083 E.01652
G1 X128.404 Y101.083 E1.3296
M73 P89 R0
G1 X128.404 Y100.626 E.01652
G1 X91.596 Y100.626 E1.3296
M73 P90 R0
G1 X91.596 Y100.169 E.01652
G1 X128.404 Y100.169 E1.3296
G1 X128.404 Y99.711 E.01652
G1 X91.596 Y99.711 E1.3296
M73 P91 R0
G1 X91.596 Y99.254 E.01652
G1 X128.404 Y99.254 E1.3296
M73 P92 R0
G1 X128.404 Y98.797 E.01652
G1 X91.596 Y98.797 E1.3296
M73 P93 R0
G1 X91.596 Y98.339 E.01652
G1 X128.404 Y98.339 E1.3296
M73 P94 R0
G1 X128.404 Y97.882 E.01652
G1 X91.596 Y97.882 E1.3296
M73 P95 R0
G1 X91.596 Y97.425 E.01652
G1 X128.404 Y97.425 E1.3296
M73 P96 R0
G1 X128.404 Y96.968 E.01652
G1 X91.596 Y96.968 E1.3296
M73 P97 R0
G1 X91.596 Y96.51 E.01652
G1 X128.404 Y96.51 E1.3296
M73 P98 R0
G1 X128.404 Y96.053 E.01652
G1 X91.596 Y96.053 E1.3296
M73 P99 R0
G1 X91.596 Y95.596 E.01652
G1 X128.61 Y95.596 E1.33703
; stop printing object Diffuser id:0 copy 0
G1 E-.35 F2400
;WIPE_START
G1 F1800
G1 X127.61 Y95.596 E-.15
;WIPE_END
EXCLUDE_OBJECT_END NAME=Diffuser_id_0_copy_0
M106 S0
;TYPE:Custom
; filament end gcode 
END_PRINT
M73 P100 R0
; EXECUTABLE_BLOCK_END

; filament used [mm] = 191.46
; filament used [cm3] = 0.46
; filament used [g] = 0.58
; filament cost = 0.02; total filament used [g] = 0.58
; total filament cost = 0.02
; total layers count = 2
; estimated printing time (normal mode) = 2m 18s

; CONFIG_BLOCK_START
; accel_to_decel_enable = 1
; accel_to_decel_factor = 50%
; activate_air_filtration = 0
; activate_chamber_temp_control = 0
; adaptive_bed_mesh_margin = 0
; additional_cooling_fan_speed = 0
; alternate_extra_wall = 0
; auxiliary_fan = 0
; bbl_calib_mark_logo = 1
; bbl_use_printhost = 0
; bed_custom_model = 
; bed_custom_texture = 
; bed_exclude_area = 0x0
; bed_mesh_max = 99999,99999
; bed_mesh_min = -99999,-99999
; bed_mesh_probe_distance = 50,50
; before_layer_change_gcode = ;BEFORE_LAYER_CHANGE\n;[layer_z]\nG92 E0\n
; best_object_pos = 0.5,0.5
; bottom_shell_layers = 1
; bottom_shell_thickness = 0
; bottom_solid_infill_flow_ratio = 1
; bottom_surface_pattern = alignedrectilinear
; bridge_acceleration = 50%
; bridge_angle = 0
; bridge_density = 100%
; bridge_flow = 0.95
; bridge_no_support = 0
; bridge_speed = 100
; brim_ears_detection_length = 1
; brim_ears_max_angle = 125
; brim_object_gap = 0.1
; brim_type = no_brim
; brim_width = 5
; chamber_temperature = 0
; change_extrusion_role_gcode = 
; change_filament_gcode = PAUSE
; close_fan_the_first_x_layers = 6
; complete_print_exhaust_fan_speed = 80
; cool_plate_temp = 70
; cool_plate_temp_initial_layer = 70
; cooling_tube_length = 5
; cooling_tube_retraction = 91.5
; counterbore_hole_bridging = none
; curr_bed_type = High Temp Plate
; default_acceleration = 5000
; default_filament_colour = #FFFFFF
; default_filament_profile = "Creality Generic PLA @Ender-3V3-all"
; default_jerk = 7
; default_print_profile = 0.20mm Standard @Creality Ender3V3KE
; deretraction_speed = 40
; detect_narrow_internal_solid_infill = 0
; detect_overhang_wall = 1
; detect_thin_wall = 1
; different_settings_to_system = bottom_shell_layers;bottom_surface_pattern;detect_narrow_internal_solid_infill;ensure_vertical_shell_thickness;gap_infill_speed;infill_direction;infill_wall_overlap;inner_wall_line_width;inner_wall_speed;internal_solid_infill_line_width;internal_solid_infill_pattern;internal_solid_infill_speed;line_width;outer_wall_line_width;outer_wall_speed;slow_down_layers;sparse_infill_density;sparse_infill_line_width;sparse_infill_pattern;sparse_infill_speed;support_line_width;top_shell_layers;top_surface_line_width;top_surface_pattern;top_surface_speed;wall_generator;close_fan_the_first_x_layers;default_filament_colour;fan_max_speed;fan_min_speed;filament_vendor;hot_plate_temp;hot_plate_temp_initial_layer;nozzle_temperature;nozzle_temperature_initial_layer;overhang_fan_threshold;reduce_fan_stop_start_freq;machine_end_gcode;machine_start_gcode;print_host;time_lapse_gcode
; disable_m73 = 0
; dont_filter_internal_bridges = disabled
; draft_shield = disabled
; during_print_exhaust_fan_speed = 60
; elefant_foot_compensation = 0
; elefant_foot_compensation_layers = 1
; emit_machine_limits_to_gcode = 1
; enable_arc_fitting = 0
; enable_filament_ramming = 1
; enable_overhang_bridge_fan = 1
; enable_overhang_speed = 1
; enable_pressure_advance = 0
; enable_prime_tower = 0
; enable_support = 0
; enforce_support_layers = 0
; eng_plate_temp = 70
; eng_plate_temp_initial_layer = 70
; ensure_vertical_shell_thickness = none
; exclude_object = 1
; extra_loading_move = -2
; extra_perimeters_on_overhangs = 0
; extruder_clearance_height_to_lid = 34
; extruder_clearance_height_to_rod = 47
; extruder_clearance_radius = 90
; extruder_colour = #FCE94F
; extruder_offset = 0x0
; fan_cooling_layer_time = 30
; fan_kickstart = 0
; fan_max_speed = 0
; fan_min_speed = 0
; fan_speedup_overhangs = 1
; fan_speedup_time = 0
; filament_colour = #FFFFFF
; filament_cooling_final_speed = 3.4
; filament_cooling_initial_speed = 2.2
; filament_cooling_moves = 4
; filament_cost = 30
; filament_density = 1.27
; filament_diameter = 1.75
; filament_end_gcode = "; filament end gcode \n"
; filament_flow_ratio = 0.95
; filament_ids = GFG99
; filament_is_support = 0
; filament_load_time = 0
; filament_loading_speed = 28
; filament_loading_speed_start = 3
; filament_max_volumetric_speed = 9
; filament_minimal_purge_on_wipe_tower = 15
; filament_multitool_ramming = 0
; filament_multitool_ramming_flow = 10
; filament_multitool_ramming_volume = 10
; filament_notes = ""
